X: 10632
T: MISS MC.LEOD'S REEL, OR THE ENTERPRISE AND BOXER
C:
%R: reel
B: Elias Howe "The Musician's Companion" Part 1 1842 p.63 #2
S: http://imslp.org/wiki/The_Musician's_Companion_(Howe,_Elias)
Z: 2015 John Chambers <jc:trillian.mit.edu>
M: C|
L: 1/8
K: G
% - - - - - - - - - - - - - - - - - - - - - - - - -
B |\
G2g2 edeg | BBBA B2BA | G2g2 edeg | AAAG A2BA |\
G2g2 edeg | BBBA B2Bd | eeed e2df | gedB A2A :|
|: B |\
GABc dGBG | BBBA B2BA | GABc dGBG | AAAG A2BA |\
GABc dGBG | BBBA B2Bd | eeed e2df | gedB A2A :|
% - - - - - - - - - - - - - - - - - - - - - - - - -
